X: 13671
T: Follow Me Up To Carlow
R: slide
M: 12/8
K: Aminor
z|"Am"ABA A2G "C"E2^F G3|"Am"A2A c2d "C"e2d c2B|
"Am"ABA A2G "C"E2^F G3|"Am"A3 "G"B2G "Am"A3 A2:|
z|"C"e2^f g3 "Em"e2^f g3|"G"B2B B2A G2A B3|
[1 "C"e2^f g2f "Em"e2^f g3|"G"B2B B2G "Am"A3 A2:|
[2 "C"e2^f g2e "F"ag=f "C"g3|"G"BAB "Em"B2G "Am"A3 A3||

